z_dist/img/bg/bp390/about-footer-wave.svg

<svg width="390" height="688" viewBox="0 0 390 688" fill="none" xmlns="http://www.w3.org/2000/svg">
<path fill-rule="evenodd" clip-rule="evenodd" d="M16.25 43.4986C0.656982 57.4623 0 61.7599 0 61.7599V139.003V139.11V687.003H390V139.11V139.003V64.9787L373.75 60.1442C366.515 57.9917 356.542 53.5071 344.619 48.1461C329.764 41.4662 311.882 33.4255 292.5 26.8396C287.022 24.9781 281.738 23.8106 276.44 22.6399C267.864 20.7451 259.25 18.8416 249.708 13.9733C236.412 5.2825 222.579 4.07382 208.788 2.8689C204.18 2.46627 199.577 2.06405 195 1.38322C162.5 -3.45131 132.302 4.89039 97.5 18.5733C82.0753 24.6377 67.426 27.4797 54.5371 29.9802C38.3454 33.1215 24.932 35.7238 16.25 43.4986Z" fill="#F5F5F5"/>
</svg>

<svg width="390" height="688" fill="none" xmlns="http://www.w3.org/2000/svg"><path fill-rule="evenodd" clip-rule="evenodd" d="M16.25 43.499C.657 57.462 0 61.759 0 61.759v625.244h390V64.979l-16.25-4.835c-7.235-2.152-17.208-6.637-29.131-11.998-14.855-6.68-32.737-14.72-52.119-21.306-5.478-1.862-10.762-3.03-16.06-4.2-8.576-1.895-17.19-3.798-26.732-8.667-13.296-8.69-27.129-9.9-40.92-11.104-4.608-.403-9.211-.805-13.788-1.486-32.5-4.834-62.698 3.507-97.5 17.19-15.425 6.065-30.074 8.907-42.963 11.407-16.192 3.141-29.605 5.744-38.287 13.52z" fill="#F5F5F5"/></svg>
